svg/u1f450_1f3fe.svg

<svg viewBox="0 0 128 128" xmlns="http://www.w3.org/2000/svg">
  <radialGradient id="a" cx="64" cy="36.25" gradientUnits="userSpaceOnUse" r="66.758">
    <stop offset=".4078" stop-color="#A56C43"/>
    <stop offset="1" stop-color="#8D5738"/>
  </radialGradient>
  <path d="m122.02 50.38c-1.85-1.48-5.13-0.62-6.38 1.4l3.89-8.4c1.24-2.64 1.18-6.76-1.87-7.93s-6.6 1.45-7.77 4.51l2.67-6.19c1.18-3.06 0.27-6.26-2.77-7.43-3.05-1.17-5.86 0.6-7.04 3.66l-2.89 7.14c1.18-3.06 1.25-5.45-1.8-6.62s-6.34 1.54-7.51 4.6c0 0-10.58 24.23-11.35 24.69-1.05 0.63-3.09 1.45-3.53 0.46-1.28-2.85-0.33-6.52-1.24-12.85-0.62-4.35-3.42-6.53-6.53-6.69-2.29-0.11-3.42 1.51-3.9 5.75-0.48-4.24-1.61-5.87-3.9-5.75-3.11 0.16-5.91 2.33-6.53 6.69-0.9 6.33 0.04 9.99-1.24 12.85-0.44 0.99-2.48 0.17-3.53-0.46-0.77-0.46-11.35-24.69-11.35-24.69-1.18-3.06-4.47-5.77-7.51-4.6-3.05 1.17-2.98 3.56-1.8 6.62l-2.89-7.14c-1.18-3.06-3.99-4.83-7.04-3.66s-3.95 4.37-2.77 7.43l2.67 6.19c-1.18-3.06-4.73-5.68-7.78-4.51s-3.11 5.29-1.87 7.93l3.89 8.4c-1.24-2.02-4.52-2.88-6.38-1.4-2.33 1.87-1.4 5.75-0.16 7.93 0 0 11.84 27.11 16.17 32.97s11.44 14.04 23.47 9.34c13.5-5.27 17.4-11.96 18.53-17.54 1.12 5.58 5.03 12.28 18.53 17.54 12.03 4.7 19.14-3.48 23.47-9.34s16.17-32.97 16.17-32.97c1.27-2.17 2.2-6.06-0.13-7.93z" fill="url(#a)"/>
  <path d="m79.5 60.51c5.74 5 6.44 9.32 5.67 18.56-0.1 1.27-1.25 1.89-1.23 0.61 0.31-14.11-8.89-18.4-8.89-18.4l4.45-0.77z" fill="#875334"/>
  <path d="m108.79 74.01s-7.46-7.16-11.88-9.36c-3.66-1.82-11.43-3.21-11.43-3.21l-0.61 1.53s7.12 2.74 10.58 4.45c4.19 2.06 12.58 7.97 12.58 7.97l0.76-1.38z" fill="#875334"/>
  <path d="m19.87 73.01s7.46-7.16 11.88-9.36c3.66-1.82 11.43-3.21 11.43-3.21l0.61 1.53s-7.12 2.74-10.58 4.45c-4.19 2.06-12.58 7.97-12.58 7.97l-0.76-1.38z" fill="#875334"/>
  <g fill="#875334">
    <polygon points="103.73 70.33 113.72 51.33 116.62 53.46 106.49 71.86"/>
    <path d="m95.91 66.63c-0.7-0.45-0.9-1.38-0.46-2.07 1.49-2.34 12.88-25.98 12.88-25.98l2.91 2.73s-11.95 23.1-13.19 25.49c-0.55 1.08-1.89-0.01-2.14-0.17z"/>
    <polygon points="87.48 62.2 97.91 37.05 101.28 38.27 90.7 63.12"/>
  </g>
  <path d="m48.5 60.51c-5.74 5-6.44 9.32-5.67 18.56 0.1 1.27 1.25 1.89 1.23 0.61-0.31-14.11 8.89-18.4 8.89-18.4l-4.45-0.77z" fill="#875334"/>
  <g fill="#875334">
    <polygon points="24.27 70.33 14.28 51.33 11.38 53.46 21.51 71.86"/>
    <path d="m31.29 66.87c0.28 0 0.56-0.08 0.81-0.24 0.7-0.45 0.9-1.38 0.46-2.07-1.49-2.34-12.88-25.98-12.88-25.98l-2.91 2.45s11.74 23.5 13.19 25.76c0.27 0.46 0.83 0.08 1.33 0.08z"/>
    <polygon points="40.52 62.2 30.09 37.05 26.72 38.27 37.3 63.12"/>
  </g>
  <path d="m107.89 27.98c0.38 0 0.78 0.08 1.17 0.23 2.23 0.86 2.28 3.12 1.64 4.81l-2.42 5.6c-0.1 0.21-0.19 0.42-0.27 0.63-0.39 1.02 0.1 2.16 1.11 2.57 0.25 0.1 0.5 0.15 0.75 0.15 0.78 0 1.51-0.45 1.84-1.21l0.21-0.48c0.85-1.75 2.68-3.11 4.18-3.11 0.29 0 0.57 0.05 0.84 0.15 0.51 0.2 0.86 0.55 1.08 1.12 0.44 1.09 0.31 2.78-0.32 4.11l-3.89 8.4c-0.44 0.96-0.06 2.1 0.87 2.6 0.3 0.16 0.62 0.24 0.94 0.24 0.67 0 1.33-0.34 1.7-0.95 0.42-0.68 1.44-1.19 2.38-1.19 0.3 0 0.73 0.05 1.05 0.31 1.23 0.98 0.6 3.75-0.33 5.38-0.04 0.06-0.07 0.13-0.1 0.19-0.12 0.27-11.8 26.97-15.95 32.58-3.63 4.91-8.25 9.93-14.98 9.93-1.94 0-4.02-0.42-6.16-1.26-15.23-5.98-16.77-13.59-17.27-16.09-0.19-0.93-1.01-1.61-1.96-1.61s-1.77 0.67-1.96 1.61c-0.5 2.5-2.04 10.12-17.29 16.08-2.14 0.84-4.21 1.26-6.16 1.26-6.74 0-11.35-5.02-14.98-9.93-4.15-5.62-15.83-32.32-15.95-32.59-0.03-0.07-0.06-0.13-0.1-0.19-0.92-1.62-1.56-4.39-0.33-5.37 0.32-0.25 0.75-0.31 1.05-0.31 0.94 0 1.96 0.51 2.38 1.19 0.38 0.61 1.03 0.95 1.7 0.95 0.32 0 0.64-0.08 0.94-0.24 0.93-0.5 1.31-1.64 0.87-2.6l-3.89-8.41c-0.62-1.32-0.75-3-0.31-4.1 0.23-0.56 0.57-0.92 1.08-1.12 0.27-0.1 0.54-0.15 0.84-0.15 1.5 0 3.33 1.36 4.18 3.11l0.21 0.48c0.33 0.75 1.06 1.21 1.84 1.21 0.25 0 0.51-0.05 0.75-0.15 1.01-0.41 1.5-1.55 1.11-2.57-0.08-0.21-0.17-0.42-0.27-0.63l-2.42-5.6c-0.64-1.69-0.59-3.96 1.64-4.81 0.4-0.15 0.79-0.23 1.17-0.23 1.37 0 2.63 1.05 3.29 2.77l2.89 7.14c0.31 0.78 1.06 1.25 1.85 1.25 0.24 0 0.49-0.04 0.73-0.14 1.02-0.4 1.53-1.55 1.13-2.58-0.51-1.32-0.71-2.31-0.59-2.93 0.04-0.22 0.13-0.69 1.24-1.11 0.26-0.1 0.51-0.15 0.78-0.15 1.52 0 3.39 1.61 4.15 3.6 0.01 0.03 0.02 0.06 0.03 0.08 10.84 24.82 11.48 25.2 12.15 25.61 0.47 0.28 2.13 1.2 3.67 1.2 1.24 0 2.25-0.61 2.71-1.64 0.87-1.95 0.9-3.99 0.94-6.57 0.03-1.92 0.06-4.1 0.45-6.81 0.43-2.99 2.17-4.85 4.65-4.97h0.12c0.4 0 1.24 0 1.69 3.98 0.11 1.01 0.97 1.78 1.99 1.78s1.87-0.63 1.99-1.64c0.45-3.97 1.29-3.85 1.69-3.85 0.04 0 0.08-0.13 0.12-0.13 2.49 0.12 4.22 1.92 4.65 4.91 0.39 2.71 0.42 4.85 0.45 6.77 0.04 2.58 0.07 4.6 0.94 6.56 0.46 1.03 1.47 1.63 2.71 1.63 1.54 0 3.2-0.93 3.67-1.21 0.68-0.41 1.31-0.79 12.15-25.61 0.01-0.03 0.02-0.06 0.03-0.08 0.76-1.98 2.62-3.6 4.15-3.6 0.27 0 0.53 0.05 0.78 0.15 1.11 0.43 1.19 0.89 1.24 1.11 0.12 0.62-0.08 1.6-0.59 2.93-0.39 1.02 0.11 2.18 1.13 2.58 0.24 0.1 0.49 0.14 0.73 0.14 0.79 0 1.54-0.47 1.85-1.25l2.9-7.17c0.7-1.69 1.96-2.74 3.33-2.74m0-2c-2.27 0-4.22 1.61-5.15 4.02l-2.89 7.14c1.18-3.06 1.25-5.45-1.8-6.62-0.5-0.19-1-0.28-1.5-0.28-2.56 0-5.03 2.32-6.01 4.88 0 0-10.58 24.23-11.35 24.69-0.7 0.42-1.83 0.92-2.64 0.92-0.41 0-0.74-0.13-0.89-0.46-1.28-2.85-0.33-6.52-1.24-12.85-0.62-4.35-3.42-6.53-6.53-6.69-0.07 0-0.15-0.01-0.22-0.01-2.14 0-3.22 1.66-3.68 5.76-0.46-4.1-1.54-5.76-3.68-5.76-0.07 0-0.15 0-0.22 0.01-3.11 0.16-5.91 2.33-6.53 6.69-0.9 6.33 0.04 9.99-1.24 12.85-0.15 0.33-0.48 0.46-0.89 0.46-0.81 0-1.94-0.5-2.64-0.92-0.77-0.46-11.35-24.69-11.35-24.69-0.99-2.56-3.45-4.88-6.01-4.88-0.5 0-1 0.09-1.5 0.28-3.05 1.17-2.98 3.56-1.8 6.62l-2.88-7.14c-0.93-2.41-2.87-4.02-5.15-4.02-0.61 0-1.25 0.12-1.89 0.36-3.05 1.17-3.95 4.37-2.77 7.43l2.45 5.67c0.08 0.17 0.16 0.34 0.22 0.52l-0.22-0.52c-1.12-2.33-3.56-4.28-6-4.28-0.52 0-1.05 0.09-1.55 0.29-3.05 1.17-3.11 5.29-1.87 7.93l3.89 8.4c-0.81-1.32-2.49-2.15-4.08-2.15-0.84 0-1.65 0.23-2.3 0.75-2.33 1.87-1.4 5.75-0.16 7.93 0 0 11.84 27.11 16.17 32.97 3.43 4.64 8.61 10.74 16.59 10.74 2.1 0 4.38-0.42 6.88-1.4 13.5-5.27 17.4-11.96 18.53-17.54 1.12 5.58 5.03 12.28 18.53 17.54 2.5 0.98 4.79 1.4 6.88 1.4 7.98 0 13.16-6.1 16.59-10.74 4.33-5.86 16.17-32.97 16.17-32.97 1.24-2.18 2.18-6.06-0.16-7.93-0.64-0.51-1.46-0.75-2.3-0.75-1.58 0-3.27 0.83-4.08 2.15l3.89-8.4c1.24-2.64 1.18-6.76-1.87-7.93-0.51-0.2-1.03-0.29-1.55-0.29-2.43 0-4.88 1.95-6 4.28l-0.22 0.52c0.07-0.17 0.14-0.35 0.22-0.52l2.45-5.67c1.18-3.06 0.27-6.26-2.77-7.43-0.63-0.24-1.27-0.36-1.88-0.36z" fill="#875334"/>
  <line fill="none" stroke="#875334" stroke-linecap="round" stroke-linejoin="round" stroke-miterlimit="10" stroke-width="3" x1="64" x2="63.92" y1="47" y2="82.27"/>
</svg>

<svg viewBox="0 0 128 128" xmlns="http://www.w3.org/2000/svg">
  <defs>
    <radialGradient id="a" cx="64" cy="36.25" gradientUnits="userSpaceOnUse" r="66.758">
      <stop offset=".4078" stop-color="#A56C43"/>
      <stop offset="1" stop-color="#8D5738"/>
    </radialGradient>
  </defs>
  <path d="M122.02,50.38 C120.17,48.9 116.89,49.76 115.64,51.78 L119.53,43.38 C120.77,40.74 120.71,36.62 117.66,35.45 C114.61,34.28 111.06,36.9 109.89,39.96 L112.56,33.77 C113.74,30.71 112.83,27.51 109.79,26.34 C106.74,25.17 103.93,26.94 102.75,30 L99.86,37.14 C101.04,34.08 101.11,31.69 98.06,30.52 C95.01,29.35 91.72,32.06 90.55,35.12 C90.55,35.12 79.97,59.35 79.2,59.81 C78.15,60.44 76.11,61.26 75.67,60.27 C74.39,57.42 75.34,53.75 74.43,47.42 C73.81,43.07 71.01,40.89 67.9,40.73 C65.61,40.62 64.48,42.24 64,46.48 C63.52,42.24 62.39,40.61 60.1,40.73 C56.99,40.89 54.19,43.06 53.57,47.42 C52.67,53.75 53.61,57.41 52.33,60.27 C51.89,61.26 49.85,60.44 48.8,59.81 C48.03,59.35 37.45,35.12 37.45,35.12 C36.27,32.06 32.98,29.35 29.94,30.52 C26.89,31.69 26.96,34.08 28.14,37.14 L25.25,30 C24.07,26.94 21.26,25.17 18.21,26.34 C15.16,27.51 14.26,30.71 15.44,33.77 L18.11,39.96 C16.93,36.9 13.38,34.28 10.33,35.45 C7.28,36.62 7.22,40.74 8.46,43.38 L12.35,51.78 C11.11,49.76 7.83,48.9 5.97,50.38 C3.64,52.25 4.57,56.13 5.81,58.31 C5.81,58.31 17.65,85.42 21.98,91.28 C26.31,97.14 33.42,105.32 45.45,100.62 C58.95,95.35 62.85,88.66 63.98,83.08 C65.1,88.66 69.01,95.36 82.51,100.62 C94.54,105.32 101.65,97.14 105.98,91.28 C110.31,85.42 122.15,58.31 122.15,58.31 C123.42,56.14 124.35,52.25 122.02,50.38 Z" fill="url(#a)"/>
  <path d="M79.5,60.51 C85.24,65.51 85.94,69.83 85.17,79.07 C85.07,80.34 83.92,80.96 83.94,79.68 C84.25,65.57 75.05,61.28 75.05,61.28 L79.5,60.51 Z" fill="#875334"/>
  <path d="M108.79,74.01 C108.79,74.01 101.33,66.85 96.91,64.65 C93.25,62.83 85.48,61.44 85.48,61.44 L84.87,62.97 C84.87,62.97 91.99,65.71 95.45,67.42 C99.64,69.48 108.03,75.39 108.03,75.39 L108.79,74.01 Z" fill="#875334"/>
  <path d="M19.87,73.01 C19.87,73.01 27.33,65.85 31.75,63.65 C35.41,61.83 43.18,60.44 43.18,60.44 L43.79,61.97 C43.79,61.97 36.67,64.71 33.21,66.42 C29.02,68.48 20.63,74.39 20.63,74.39 L19.87,73.01 Z" fill="#875334"/>
  <path d="M103.73,70.33 L113.72,51.33 L116.62,53.46 L106.49,71.86 Z" fill="#875334"/>
  <path d="M95.91,66.63 C95.21,66.18 95.01,65.25 95.45,64.56 C96.94,62.22 108.33,38.58 108.33,38.58 L111.24,41.31 C111.24,41.31 99.29,64.41 98.05,66.8 C97.5,67.88 96.16,66.79 95.91,66.63 Z" fill="#875334"/>
  <path d="M87.48,62.2 L97.91,37.05 L101.28,38.27 L90.7,63.12 Z" fill="#875334"/>
  <path d="M48.5,60.51 C42.76,65.51 42.06,69.83 42.83,79.07 C42.93,80.34 44.08,80.96 44.06,79.68 C43.75,65.57 52.95,61.28 52.95,61.28 L48.5,60.51 Z" fill="#875334"/>
  <path d="M24.27,70.33 L14.28,51.33 L11.38,53.46 L21.51,71.86 Z" fill="#875334"/>
  <path d="M31.29,66.87 C31.57,66.87 31.85,66.79 32.1,66.63 C32.8,66.18 33,65.25 32.56,64.56 C31.07,62.22 19.68,38.58 19.68,38.58 L16.77,41.03 C16.77,41.03 28.51,64.53 29.96,66.79 C30.23,67.25 30.79,66.87 31.29,66.87 Z" fill="#875334"/>
  <path d="M40.52,62.2 L30.09,37.05 L26.72,38.27 L37.3,63.12 Z" fill="#875334"/>
  <path d="M107.89,27.98 C108.27,27.98 108.67,28.06 109.06,28.21 C111.29,29.07 111.34,31.33 110.7,33.02 L108.28,38.62 C108.18,38.83 108.09,39.04 108.01,39.25 C107.62,40.27 108.11,41.41 109.12,41.82 C109.37,41.92 109.62,41.97 109.87,41.97 C110.65,41.97 111.38,41.52 111.71,40.76 L111.92,40.28 C112.77,38.53 114.6,37.17 116.1,37.17 C116.39,37.17 116.67,37.22 116.94,37.32 C117.45,37.52 117.8,37.87 118.02,38.44 C118.46,39.53 118.33,41.22 117.7,42.55 L113.81,50.95 C113.37,51.91 113.75,53.05 114.68,53.55 C114.98,53.71 115.3,53.79 115.62,53.79 C116.29,53.79 116.95,53.45 117.32,52.84 C117.74,52.16 118.76,51.65 119.7,51.65 C120,51.65 120.43,51.7 120.75,51.96 C121.98,52.94 121.35,55.71 120.42,57.34 C120.38,57.4 120.35,57.47 120.32,57.53 C120.2,57.8 108.52,84.5 104.37,90.11 C100.74,95.02 96.12,100.04 89.39,100.04 C87.45,100.04 85.37,99.62 83.23,98.78 C68,92.8 66.46,85.19 65.96,82.69 C65.77,81.76 64.95,81.08 64,81.08 C63.05,81.08 62.23,81.75 62.04,82.69 C61.54,85.19 60,92.81 44.75,98.77 C42.61,99.61 40.54,100.03 38.59,100.03 C31.85,100.03 27.24,95.01 23.61,90.1 C19.46,84.48 7.78,57.78 7.66,57.51 C7.63,57.44 7.6,57.38 7.56,57.32 C6.64,55.7 6,52.93 7.23,51.95 C7.55,51.7 7.98,51.64 8.28,51.64 C9.22,51.64 10.24,52.15 10.66,52.83 C11.04,53.44 11.69,53.78 12.36,53.78 C12.68,53.78 13,53.7 13.3,53.54 C14.23,53.04 14.61,51.9 14.17,50.94 L10.28,42.53 C9.66,41.21 9.53,39.53 9.97,38.43 C10.2,37.87 10.54,37.51 11.05,37.31 C11.32,37.21 11.59,37.16 11.89,37.16 C13.39,37.16 15.22,38.52 16.07,40.27 L16.28,40.75 C16.61,41.5 17.34,41.96 18.12,41.96 C18.37,41.96 18.63,41.91 18.87,41.81 C19.88,41.4 20.37,40.26 19.98,39.24 C19.9,39.03 19.81,38.82 19.71,38.61 L17.29,33.01 C16.65,31.32 16.7,29.05 18.93,28.2 C19.33,28.05 19.72,27.97 20.1,27.97 C21.47,27.97 22.73,29.02 23.39,30.74 L26.28,37.88 C26.59,38.66 27.34,39.13 28.13,39.13 C28.37,39.13 28.62,39.09 28.86,38.99 C29.88,38.59 30.39,37.44 29.99,36.41 C29.48,35.09 29.28,34.1 29.4,33.48 C29.44,33.26 29.53,32.79 30.64,32.37 C30.9,32.27 31.15,32.22 31.42,32.22 C32.94,32.22 34.81,33.83 35.57,35.82 C35.58,35.85 35.59,35.88 35.6,35.9 C46.44,60.72 47.08,61.1 47.75,61.51 C48.22,61.79 49.88,62.71 51.42,62.71 C52.66,62.71 53.67,62.1 54.13,61.07 C55,59.12 55.03,57.08 55.07,54.5 C55.1,52.58 55.13,50.4 55.52,47.69 C55.95,44.7 57.69,42.84 60.17,42.72 L60.29,42.72 C60.69,42.72 61.53,42.72 61.98,46.7 C62.09,47.71 62.95,48.48 63.97,48.48 C64.99,48.48 65.84,47.85 65.96,46.84 C66.41,42.87 67.25,42.99 67.65,42.99 C67.69,42.99 67.73,42.86 67.77,42.86 C70.26,42.98 71.99,44.78 72.42,47.77 C72.81,50.48 72.84,52.62 72.87,54.54 C72.91,57.12 72.94,59.14 73.81,61.1 C74.27,62.13 75.28,62.73 76.52,62.73 C78.06,62.73 79.72,61.8 80.19,61.52 C80.87,61.11 81.5,60.73 92.34,35.91 C92.35,35.88 92.36,35.85 92.37,35.83 C93.13,33.85 94.99,32.23 96.52,32.23 C96.79,32.23 97.05,32.28 97.3,32.38 C98.41,32.81 98.49,33.27 98.54,33.49 C98.66,34.11 98.46,35.09 97.95,36.42 C97.56,37.44 98.06,38.6 99.08,39 C99.32,39.1 99.57,39.14 99.81,39.14 C100.6,39.14 101.35,38.67 101.66,37.89 L104.56,30.72 C105.26,29.03 106.52,27.98 107.89,27.98 M107.89,25.98 C105.62,25.98 103.67,27.59 102.74,30 L99.85,37.14 C101.03,34.08 101.1,31.69 98.05,30.52 C97.55,30.33 97.05,30.24 96.55,30.24 C93.99,30.24 91.52,32.56 90.54,35.12 C90.54,35.12 79.96,59.35 79.19,59.81 C78.49,60.23 77.36,60.73 76.55,60.73 C76.14,60.73 75.81,60.6 75.66,60.27 C74.38,57.42 75.33,53.75 74.42,47.42 C73.8,43.07 71,40.89 67.89,40.73 C67.82,40.73 67.74,40.72 67.67,40.72 C65.53,40.72 64.45,42.38 63.99,46.48 C63.53,42.38 62.45,40.72 60.31,40.72 C60.24,40.72 60.16,40.72 60.09,40.73 C56.98,40.89 54.18,43.06 53.56,47.42 C52.66,53.75 53.6,57.41 52.32,60.27 C52.17,60.6 51.84,60.73 51.43,60.73 C50.62,60.73 49.49,60.23 48.79,59.81 C48.02,59.35 37.44,35.12 37.44,35.12 C36.45,32.56 33.99,30.24 31.43,30.24 C30.93,30.24 30.43,30.33 29.93,30.52 C26.88,31.69 26.95,34.08 28.13,37.14 L25.25,30 C24.32,27.59 22.38,25.98 20.1,25.98 C19.49,25.98 18.85,26.1 18.21,26.34 C15.16,27.51 14.26,30.71 15.44,33.77 L17.89,39.44 C17.97,39.61 18.05,39.78 18.11,39.96 L17.89,39.44 C16.77,37.11 14.33,35.16 11.89,35.16 C11.37,35.16 10.84,35.25 10.34,35.45 C7.29,36.62 7.23,40.74 8.47,43.38 L12.36,51.78 C11.55,50.46 9.87,49.63 8.28,49.63 C7.44,49.63 6.63,49.86 5.98,50.38 C3.65,52.25 4.58,56.13 5.82,58.31 C5.82,58.31 17.66,85.42 21.99,91.28 C25.42,95.92 30.6,102.02 38.58,102.02 C40.68,102.02 42.96,101.6 45.46,100.62 C58.96,95.35 62.86,88.66 63.99,83.08 C65.11,88.66 69.02,95.36 82.52,100.62 C85.02,101.6 87.31,102.02 89.4,102.02 C97.38,102.02 102.56,95.92 105.99,91.28 C110.32,85.42 122.16,58.31 122.16,58.31 C123.4,56.13 124.34,52.25 122,50.38 C121.36,49.87 120.54,49.63 119.7,49.63 C118.12,49.63 116.43,50.46 115.62,51.78 L119.51,43.38 C120.75,40.74 120.69,36.62 117.64,35.45 C117.13,35.25 116.61,35.16 116.09,35.16 C113.66,35.16 111.21,37.11 110.09,39.44 L109.87,39.96 C109.94,39.79 110.01,39.61 110.09,39.44 L112.54,33.77 C113.72,30.71 112.81,27.51 109.77,26.34 C109.14,26.1 108.5,25.98 107.89,25.98 Z" fill="#875334"/>
  <path d="M65.5,47.003 L65.42,82.273 Q65.417,83.773 63.917,83.77 Q63.167,83.768 62.792,83.392 Q62.418,83.017 62.42,82.267 L62.5,46.997 Q62.503,45.497 64.003,45.5 Q64.753,45.502 65.128,45.878 Q65.502,46.253 65.5,47.003 Z" fill="#875334"/>
</svg>
